X: 10821
T: Dram Circle, The
R: jig
M: 6/8
K: Dmajor
|:dcA G2 B|ABF ABc|dcA G3|AF(D D)Bc|
dcA d2 e|fed cAF|GB/c/d cAG|1 AFE D3:|2 AFE Dfg||
abf afd|eg/f/e fdB|bBB aBB|gfg edc|
dcB AFB|AFD E2 c|dAd cAG|AB/c/d efg|
abf afd|ede edb|bBB aBB|gfg edc|
def edc|AGF G2 d|cAd cAG|AFD D2 z||

